src/icons/hds/ui/trash.svg

<svg xmlns="http://www.w3.org/2000/svg" width="24" height="24" viewBox="0 0 24 24">
  <g fill="none" fill-rule="evenodd">
    <rect width="24" height="24"/>
    <path fill="currentColor" d="M18,9 L6,9 L7.08678536,22 L16.9132146,22 L18,9 Z M15.905,11 L15.087,20 L8.912,20 L8.094,11 L15.905,11 Z M12,2 C13.609024,2 14.9044711,3.21958169 14.9949507,4.82058383 L15,5 L15,6 L18,6 L18,8 L6,8 L6,6 L9,6 L9,5 C9,3.31159403 10.3313825,2 12,2 Z M12,4 C11.4700677,4 11.0620505,4.36466311 11.0064661,4.87879807 L11,5 L11,6 L13,6 L13,5 C13,4.4229229 12.5706963,4 12,4 Z"/>
  </g>
</svg>

<svg viewBox="0 0 24 24" role="img" xmlns="http://www.w3.org/2000/svg"><g fill="none" fill-rule="evenodd"><path d="M0 0h24v24H0z"/><path d="M18 9H6l1.087 13h9.826L18 9zm-2.095 2l-.818 9H8.912l-.818-9h7.811zM12 2a2.97 2.97 0 012.995 2.82L15 5v1h3v2H6V6h3V5c0-1.688 1.331-3 3-3zm0 2c-.53 0-.938.365-.994.879L11 5v1h2V5c0-.577-.43-1-1-1z" fill="currentColor"/></g></svg>
